X: 42
T:Cafe Waltz
M:3/4
L:1/4
R:Waltz
Z:Steve Mansfield
K:Em
B2G | E>FG | AA/G/F/E/ | DEF | GFG | A_GA | B^AB | A3 |
B2G | E>FG | AA/G/F/E/ | DEF | GFG | A_GA | B_BA |1G3 :|2 G>FG/E/ |
|:D2G | EcB | Adc | B>AG/E/ | D2G | EcB | AGF |1 G>FG/E/:|2 G2A |
[L:1/8]
|: BGEGBG | BGEGBG | cAFDFA | cAFDFA |
BGEGBG | BGEGBG | cAFDFA |1 G4A2 :|2 G6 ||

